material/.icons/material/file-pdf.svg

<svg xmlns="http://www.w3.org/2000/svg" viewBox="0 0 24 24"><path d="M13 9h5.5L13 3.5V9M6 2h8l6 6v12a2 2 0 01-2 2H6a2 2 0 01-2-2V4a2 2 0 012-2m4.1 9.4c-.02.04-.29 1.76-2.1 4.69 0 0-3.5 1.82-2.67 3.18.67 1.08 2.32-.04 3.74-2.68 0 0 1.82-.64 4.24-.82 0 0 3.86 1.73 4.39-.11.52-1.86-3.06-1.44-3.7-1.25 0 0-2-1.35-2.5-3.21 0 0 1.14-3.95-.61-3.9-1.75.05-1.09 3.13-.79 4.1m.81 1.04c.03.01.47 1.21 1.89 2.46 0 0-2.33.46-3.39.9 0 0 1-1.73 1.5-3.36m3.93 2.72c.58-.16 2.33.15 2.26.48-.06.33-2.26-.48-2.26-.48M7.77 17c-.53 1.24-1.44 2-1.67 2-.23 0 .7-1.6 1.67-2m3.14-6.93c0-.07-.36-2.2 0-2.15.54.08 0 2.08 0 2.15z"/></svg>

<?xml version="1.0" encoding="UTF-8"?><!DOCTYPE svg PUBLIC "-//W3C//DTD SVG 1.1//EN" "http://www.w3.org/Graphics/SVG/1.1/DTD/svg11.dtd"><svg xmlns="http://www.w3.org/2000/svg" xmlns:xlink="http://www.w3.org/1999/xlink" version="1.1" id="mdi-file-pdf" width="24" height="24" viewBox="0 0 24 24"><path d="M13,9H18.5L13,3.5V9M6,2H14L20,8V20A2,2 0 0,1 18,22H6A2,2 0 0,1 4,20V4A2,2 0 0,1 6,2M10.1,11.4C10.08,11.44 9.81,13.16 8,16.09C8,16.09 4.5,17.91 5.33,19.27C6,20.35 7.65,19.23 9.07,16.59C9.07,16.59 10.89,15.95 13.31,15.77C13.31,15.77 17.17,17.5 17.7,15.66C18.22,13.8 14.64,14.22 14,14.41C14,14.41 12,13.06 11.5,11.2C11.5,11.2 12.64,7.25 10.89,7.3C9.14,7.35 9.8,10.43 10.1,11.4M10.91,12.44C10.94,12.45 11.38,13.65 12.8,14.9C12.8,14.9 10.47,15.36 9.41,15.8C9.41,15.8 10.41,14.07 10.91,12.44M14.84,15.16C15.42,15 17.17,15.31 17.1,15.64C17.04,15.97 14.84,15.16 14.84,15.16M7.77,17C7.24,18.24 6.33,19 6.1,19C5.87,19 6.8,17.4 7.77,17M10.91,10.07C10.91,10 10.55,7.87 10.91,7.92C11.45,8 10.91,10 10.91,10.07Z" /></svg>
